storage/app/icons/phosphoricons/regular/barbell.svg

<svg xmlns="http://www.w3.org/2000/svg" fill="currentColor" viewBox="0 0 256 256"><path d="M248 120h-8V88a16 16 0 0 0-16-16h-16v-8a16 16 0 0 0-16-16h-24a16 16 0 0 0-16 16v56h-48V64a16 16 0 0 0-16-16H64a16 16 0 0 0-16 16v8H32a16 16 0 0 0-16 16v32H8a8 8 0 0 0 0 16h8v32a16 16 0 0 0 16 16h16v8a16 16 0 0 0 16 16h24a16 16 0 0 0 16-16v-56h48v56a16 16 0 0 0 16 16h24a16 16 0 0 0 16-16v-8h16a16 16 0 0 0 16-16v-32h8a8 8 0 0 0 0-16M32 168V88h16v80Zm56 24H64V64h24zm104 0h-24V64h24zm32-24h-16V88h16Z"/></svg>

<svg xmlns="http://www.w3.org/2000/svg" viewBox="0 0 256 256" fill="currentColor"><path d="M248,120h-8V88a16,16,0,0,0-16-16H208V64a16,16,0,0,0-16-16H168a16,16,0,0,0-16,16v56H104V64A16,16,0,0,0,88,48H64A16,16,0,0,0,48,64v8H32A16,16,0,0,0,16,88v32H8a8,8,0,0,0,0,16h8v32a16,16,0,0,0,16,16H48v8a16,16,0,0,0,16,16H88a16,16,0,0,0,16-16V136h48v56a16,16,0,0,0,16,16h24a16,16,0,0,0,16-16v-8h16a16,16,0,0,0,16-16V136h8a8,8,0,0,0,0-16ZM32,168V88H48v80Zm56,24H64V64H88V192Zm104,0H168V64h24V175.82c0,.06,0,.12,0,.18s0,.12,0,.18V192Zm32-24H208V88h16Z"/></svg>
